;FLAVOR:Marlin
;TIME:1606
;Filament used: 1.19631m
;Layer height: 0.2
;MINX:150.92
;MINY:150.921
;MINZ:0.2
;MAXX:199.079
;MAXY:199.081
;MAXZ:10
;Generated with Cura_SteamEngine 4.6.2
M140 S50
M105
M190 S50
M104 S195
M105
M109 S195
M82 ;absolute extrusion mode
M201 X500.00 Y500.00 Z100.00 E5000.00 ;Setup machine max acceleration
M203 X500.00 Y500.00 Z10.00 E50.00 ;Setup machine max feedrate
M204 P500.00 R1000.00 T500.00 ;Setup Print/Retract/Travel acceleration
M205 X8.00 Y8.00 Z0.40 E5.00 ;Setup Jerk
M220 S100 ;Reset Feedrate
M221 S100 ;Reset Flowrate

G28 ;Home
M420 S1 Z2 ;Enable ABL using saved Mesh and Fade Height

G92 E0 ;Reset Extruder
G1 Z2.0 F3000 ;Move Z Axis up
G1 X10.1 Y20 Z0.28 F5000.0 ;Move to start position
G1 X10.1 Y200.0 Z0.28 F1500.0 E15 ;Draw the first line
G1 X10.4 Y200.0 Z0.28 F5000.0 ;Move to side a little
G1 X10.4 Y20 Z0.28 F1500.0 E30 ;Draw the second line
G92 E0 ;Reset Extruder
G1 Z2.0 F3000 ;Move Z Axis up

G92 E0
G92 E0
G1 F2100 E-1.5
;LAYER_COUNT:50
;LAYER:0
M107
G0 F6000 X177.22 Y151.421 Z0.2
;TYPE:SKIRT
G1 F2100 E0
G1 F1200 X178.071 Y151.516 E0.02848
G1 X179.044 Y151.67 E0.06125
G1 X179.824 Y151.812 E0.08761
G1 X180.682 Y152.007 E0.11688
G1 X181.63 Y152.269 E0.14959
G1 X182.386 Y152.496 E0.17585
G1 X183.246 Y152.797 E0.20615
G1 X184.083 Y153.135 E0.23617
G1 X184.864 Y153.469 E0.26443
G1 X185.659 Y153.85 E0.29375
G1 X186.54 Y154.325 E0.32704
G1 X187.201 Y154.701 E0.35233
G1 X187.908 Y155.142 E0.38004
G1 X188.684 Y155.677 E0.41139
G1 X189.354 Y156.162 E0.4389
G1 X190.023 Y156.69 E0.46725
G1 X190.777 Y157.344 E0.50045
G1 X191.407 Y157.919 E0.52882
G1 X192.034 Y158.543 E0.55824
G1 X192.699 Y159.271 E0.59103
G1 X193.221 Y159.87 E0.61746
G1 X193.75 Y160.53 E0.64559
G1 X194.354 Y161.36 E0.67973
G1 X194.816 Y162.029 E0.70678
G1 X195.274 Y162.756 E0.73535
G1 X195.727 Y163.553 E0.76584
G1 X196.136 Y164.314 E0.79458
G1 X196.51 Y165.087 E0.82314
G1 X196.901 Y165.999 E0.85614
G1 X197.195 Y166.732 E0.88241
G1 X197.485 Y167.556 E0.91147
G1 X197.762 Y168.478 E0.94349
G1 X197.987 Y169.293 E0.97161
G1 X198.189 Y170.176 E1.00173
G1 X198.352 Y171.082 E1.03235
G1 X198.476 Y171.869 E1.05885
G1 X198.573 Y172.722 E1.0874
G1 X198.646 Y173.778 E1.12261
G1 X198.679 Y174.543 E1.14808
G1 X198.679 Y175.406 E1.17678
G1 X198.63 Y176.487 E1.21277
G1 X198.579 Y177.22 E1.23721
G1 X198.484 Y178.071 E1.26569
G1 X198.33 Y179.042 E1.29839
G1 X198.188 Y179.823 E1.32479
G1 X197.991 Y180.691 E1.3544
G1 X197.723 Y181.657 E1.38774
G1 X197.5 Y182.397 E1.41345
G1 X197.207 Y183.235 E1.44297
G1 X196.854 Y184.112 E1.47442
G1 X196.542 Y184.842 E1.50082
G1 X196.168 Y185.623 E1.52962
G1 X195.687 Y186.519 E1.56344
G1 X195.307 Y187.187 E1.58901
G1 X194.879 Y187.875 E1.61596
G1 X194.324 Y188.684 E1.64859
G1 X193.844 Y189.347 E1.67581
G1 X193.308 Y190.024 E1.70453
G1 X192.62 Y190.816 E1.73942
G1 X192.093 Y191.394 E1.76544
G1 X191.45 Y192.039 E1.79573
G1 X190.62 Y192.796 E1.83309
G1 X190.108 Y193.241 E1.85566
G1 X189.434 Y193.778 E1.88432
G1 X188.615 Y194.372 E1.91797
G1 X187.967 Y194.819 E1.94415
G1 X187.229 Y195.283 E1.97315
G1 X186.357 Y195.776 E2.00646
G1 X185.655 Y196.151 E2.03293
G1 X184.895 Y196.517 E2.06099
G1 X184.087 Y196.863 E2.09023
G1 X183.268 Y197.193 E2.11959
G1 X182.423 Y197.491 E2.14939
G1 X181.495 Y197.769 E2.18162
G1 X180.733 Y197.979 E2.2079
G1 X179.9 Y198.172 E2.23634
G1 X179.009 Y198.335 E2.26647
G1 X178.121 Y198.477 E2.29638
G1 X177.22 Y198.58 E2.32654
G1 X176.24 Y198.645 E2.35921
G1 X175.443 Y198.68 E2.38574
G1 X174.567 Y198.681 E2.41488
G1 X173.576 Y198.635 E2.44788
G1 X172.784 Y198.58 E2.47428
G1 X171.93 Y198.485 E2.50286
G1 X171 Y198.337 E2.53418
G1 X170.17 Y198.186 E2.56224
G1 X169.306 Y197.99 E2.59171
G1 X168.349 Y197.725 E2.62474
G1 X167.605 Y197.501 E2.65058
G1 X166.765 Y197.207 E2.68018
G1 X165.884 Y196.852 E2.71177
G1 X165.148 Y196.537 E2.7384
G1 X164.378 Y196.169 E2.76678
G1 X163.55 Y195.725 E2.79803
G1 X162.793 Y195.296 E2.82697
G1 X162.031 Y194.819 E2.85687
G1 X161.243 Y194.272 E2.88878
G1 X160.598 Y193.803 E2.9153
G1 X159.915 Y193.259 E2.94434
G1 X159.167 Y192.606 E2.97737
G1 X158.587 Y192.075 E3.00352
G1 X157.982 Y191.473 E3.03191
G1 X157.331 Y190.762 E3.06397
G1 X156.774 Y190.124 E3.09214
G1 X156.229 Y189.444 E3.12113
G1 X155.649 Y188.644 E3.15399
G1 X155.181 Y187.967 E3.18136
G1 X154.71 Y187.219 E3.21076
G1 X154.273 Y186.446 E3.2403
G1 X153.863 Y185.683 E3.26911
G1 X153.488 Y184.909 E3.29771
G1 X153.099 Y184.001 E3.33057
G1 X152.805 Y183.268 E3.35684
G1 X152.515 Y182.444 E3.38589
G1 X152.232 Y181.503 E3.41857
G1 X152.009 Y180.689 E3.44664
G1 X151.818 Y179.852 E3.4752
G1 X151.648 Y178.918 E3.50677
G1 X151.524 Y178.131 E3.53327
G1 X151.429 Y177.309 E3.56079
G1 X151.375 Y176.592 E3.58471
G1 X151.356 Y176.267 E3.59554
G1 X151.32 Y175.436 E3.6232
G1 X151.319 Y174.561 E3.65231
G1 X151.363 Y173.617 E3.68374
G1 X151.42 Y172.785 E3.71147
G1 X151.516 Y171.923 E3.74032
G1 X151.661 Y171.009 E3.7711
G1 X151.811 Y170.182 E3.79906
G1 X152.009 Y169.309 E3.82883
G1 X152.28 Y168.333 E3.86252
G1 X152.505 Y167.589 E3.88837
G1 X152.792 Y166.766 E3.91736
G1 X153.148 Y165.884 E3.949
G1 X153.463 Y165.148 E3.97562
G1 X153.839 Y164.363 E4.00457
G1 X154.317 Y163.474 E4.03815
G1 X154.712 Y162.781 E4.06468
G1 X155.154 Y162.075 E4.09238
G1 X155.674 Y161.321 E4.12284
G1 X156.189 Y160.61 E4.15204
G1 X156.747 Y159.907 E4.1819
G1 X157.392 Y159.169 E4.2145
G1 X157.909 Y158.603 E4.23999
G1 X158.515 Y157.993 E4.26859
G1 X159.231 Y157.336 E4.30091
G1 X159.868 Y156.779 E4.32906
G1 X160.568 Y156.219 E4.35887
G1 X161.36 Y155.646 E4.39138
G1 X162.029 Y155.184 E4.41843
G1 X162.771 Y154.717 E4.44759
G1 X163.633 Y154.23 E4.48051
G1 X164.335 Y153.854 E4.507
G1 X165.113 Y153.478 E4.53574
G1 X165.912 Y153.137 E4.56464
G1 X166.731 Y152.807 E4.594
G1 X167.58 Y152.508 E4.62394
G1 X168.505 Y152.231 E4.65606
G1 X169.267 Y152.021 E4.68235
G1 X170.1 Y151.828 E4.71079
G1 X170.998 Y151.664 E4.74115
G1 X171.877 Y151.524 E4.77075
G1 X172.763 Y151.422 E4.80041
G1 X173.823 Y151.352 E4.83575
G1 X174.57 Y151.321 E4.86061
G1 X175.421 Y151.321 E4.88892
G1 X176.207 Y151.354 E4.91508
G1 X177.22 Y151.421 E4.94885
G0 F6000 X177.248 Y151.022
G1 F1200 X178.132 Y151.12 E4.97843
G1 X179.116 Y151.276 E5.01157
G1 X179.896 Y151.418 E5.03794
G1 X180.787 Y151.621 E5.06833
G1 X181.745 Y151.886 E5.10139
G1 X182.501 Y152.113 E5.12765
G1 X183.395 Y152.425 E5.15914
G1 X184.24 Y152.767 E5.18946
G1 X185.021 Y153.101 E5.21771
G1 X185.847 Y153.497 E5.24818
G1 X186.738 Y153.977 E5.28184
G1 X187.399 Y154.353 E5.30713
G1 X188.134 Y154.812 E5.33595
G1 X188.919 Y155.353 E5.36766
G1 X189.589 Y155.838 E5.39517
G1 X190.284 Y156.387 E5.42463
G1 X191.047 Y157.049 E5.45823
G1 X191.677 Y157.624 E5.4866
G1 X192.328 Y158.272 E5.51715
G1 X193 Y159.008 E5.5503
G1 X193.522 Y159.607 E5.57672
G1 X194.072 Y160.293 E5.60597
G1 X194.502 Y160.878 E5.63011
G1 X194.683 Y161.133 E5.64052
G1 X195.145 Y161.802 E5.66756
G1 X195.621 Y162.557 E5.69724
G1 X196.079 Y163.364 E5.7281
G1 X196.488 Y164.125 E5.75684
G1 X196.877 Y164.928 E5.78652
G1 X197.272 Y165.85 E5.81988
G1 X197.566 Y166.583 E5.84615
G1 X197.868 Y167.44 E5.87637
G1 X198.148 Y168.371 E5.9087
G1 X198.373 Y169.186 E5.93682
G1 X198.583 Y170.104 E5.96814
G1 X198.747 Y171.02 E5.9991
G1 X198.871 Y171.807 E6.02559
G1 X198.972 Y172.693 E6.05525
G1 X199.045 Y173.761 E6.09086
G1 X199.078 Y174.526 E6.11633
G1 X199.079 Y175.422 E6.14613
G1 X199.029 Y176.515 E6.18252
G1 X198.978 Y177.248 E6.20696
G1 X198.88 Y178.132 E6.23654
G1 X198.724 Y179.113 E6.26958
G1 X198.582 Y179.894 E6.29598
G1 X198.377 Y180.797 E6.32678
G1 X198.106 Y181.772 E6.36044
G1 X197.883 Y182.512 E6.38614
G1 X197.579 Y183.383 E6.41682
G1 X197.222 Y184.269 E6.4486
G1 X196.91 Y184.999 E6.475
G1 X196.522 Y185.811 E6.50493
G1 X196.035 Y186.717 E6.53914
G1 X195.655 Y187.385 E6.5647
G1 X195.21 Y188.1 E6.59271
G1 X194.831 Y188.658 E6.61515
G1 X194.648 Y188.918 E6.62573
G1 X194.168 Y189.581 E6.65295
G1 X193.611 Y190.285 E6.68281
G1 X192.916 Y191.086 E6.71808
G1 X192.389 Y191.664 E6.74409
G1 X191.72 Y192.334 E6.77559
G1 X190.883 Y193.098 E6.81328
G1 X190.371 Y193.543 E6.83584
G1 X189.67 Y194.101 E6.86564
G1 X188.842 Y194.701 E6.89965
G1 X188.194 Y195.148 E6.92583
G1 X187.428 Y195.63 E6.95593
G1 X186.545 Y196.129 E6.98967
G1 X185.843 Y196.504 E7.01614
G1 X185.053 Y196.885 E7.04531
G1 X184.237 Y197.234 E7.07483
G1 X183.418 Y197.564 E7.1042
G1 X182.539 Y197.874 E7.1352
G1 X181.601 Y198.155 E7.16777
G1 X180.839 Y198.365 E7.19405
G1 X179.973 Y198.565 E7.22362
G1 X179.072 Y198.73 E7.25408
G1 X178.184 Y198.872 E7.28399
G1 X177.247 Y198.979 E7.31536
G1 X176.258 Y199.045 E7.34833
G1 X175.461 Y199.08 E7.37486
G1 X174.55 Y199.081 E7.40516
G1 X173.549 Y199.035 E7.43849
G1 X172.757 Y198.98 E7.46489
G1 X171.869 Y198.88 E7.49462
G1 X170.929 Y198.731 E7.52627
G1 X170.099 Y198.58 E7.55433
G1 X169.201 Y198.376 E7.58496
G1 X168.234 Y198.108 E7.61833
G1 X167.49 Y197.884 E7.64418
G1 X166.617 Y197.579 E7.67493
G1 X165.726 Y197.22 E7.70688
G1 X164.99 Y196.905 E7.73351
G1 X164.19 Y196.522 E7.76301
G1 X163.353 Y196.073 E7.7946
G1 X162.596 Y195.644 E7.82354
G1 X161.804 Y195.148 E7.85462
G1 X161.008 Y194.595 E7.88686
G1 X160.363 Y194.126 E7.91339
G1 X159.652 Y193.561 E7.94359
G1 X158.897 Y192.901 E7.97694
G1 X158.317 Y192.37 E8.0031
G1 X157.688 Y191.744 E8.03261
G1 X157.03 Y191.025 E8.06503
G1 X156.473 Y190.387 E8.0932
G1 X155.907 Y189.68 E8.12332
G1 X155.32 Y188.872 E8.15654
G1 X154.852 Y188.195 E8.18391
G1 X154.362 Y187.417 E8.21449
G1 X153.921 Y186.635 E8.24435
G1 X153.511 Y185.872 E8.27316
G1 X153.121 Y185.068 E8.30288
G1 X152.728 Y184.15 E8.3361
G1 X152.434 Y183.417 E8.36237
G1 X152.132 Y182.56 E8.39259
G1 X151.847 Y181.609 E8.42561
G1 X151.624 Y180.795 E8.45368
G1 X151.424 Y179.925 E8.48337
G1 X151.253 Y178.98 E8.51531
G1 X151.129 Y178.193 E8.54181
G1 X151.03 Y177.339 E8.5704
G1 X150.976 Y176.622 E8.59432
G1 X150.956 Y176.285 E8.60555
G1 X150.92 Y175.454 E8.63321
G1 X150.92 Y174.544 E8.66348
G1 X150.964 Y173.589 E8.69528
G1 X151.021 Y172.757 E8.72301
G1 X151.121 Y171.862 E8.75297
G1 X151.267 Y170.937 E8.78411
G1 X151.417 Y170.11 E8.81207
G1 X151.623 Y169.203 E8.843
G1 X151.897 Y168.218 E8.87701
G1 X152.122 Y167.474 E8.90286
G1 X152.421 Y166.618 E8.93302
G1 X152.78 Y165.726 E8.965
G1 X153.095 Y164.99 E8.99163
G1 X153.486 Y164.175 E9.02169
G1 X153.97 Y163.276 E9.05565
G1 X154.365 Y162.583 E9.08218
G1 X154.824 Y161.849 E9.11097
G1 X155.35 Y161.086 E9.1418
G1 X155.865 Y160.375 E9.171
G1 X156.445 Y159.645 E9.20201
G1 X157.097 Y158.899 E9.23496
G1 X157.614 Y158.333 E9.26046
G1 X158.243 Y157.7 E9.29014
G1 X158.968 Y157.035 E9.32286
G1 X159.605 Y156.478 E9.351
G1 X160.332 Y155.896 E9.38198
G1 X161.133 Y155.317 E9.41485
G1 X161.802 Y154.855 E9.44189
G1 X162.572 Y154.37 E9.47216
G1 X163.444 Y153.877 E9.50548
G1 X164.146 Y153.501 E9.53196
G1 X164.955 Y153.111 E9.56183
G1 X165.762 Y152.766 E9.59102
G1 X166.581 Y152.436 E9.62039
G1 X167.464 Y152.125 E9.65153
G1 X168.399 Y151.845 E9.68399
G1 X169.161 Y151.635 E9.71028
G1 X170.027 Y151.435 E9.73984
G1 X170.935 Y151.269 E9.77054
G1 X171.814 Y151.129 E9.80015
G1 X172.735 Y151.023 E9.83098
G1 X173.806 Y150.952 E9.86668
G1 X174.553 Y150.921 E9.89155
G1 X175.438 Y150.921 E9.92098
G1 X176.224 Y150.954 E9.94715
G1 X177.248 Y151.022 E9.98128
G1 F2100 E8.48128
;MESH:Bearing3.stl
G0 F6000 X175.6 Y165.084
G0 X175.688 Y163.63
G0 X178.469 Y164.519
G0 X179.8 Y165.061
G0 X181.044 Y165.77
G0 X182.033 Y166.489
G0 X183.071 Y167.466
G0 X183.98 Y168.582
G0 X184.733 Y169.803
G0 X185.254 Y170.909
G0 X185.697 Y172.265
G0 X185.96 Y173.674
G0 X186.036 Y175.106
G0 X185.926 Y176.535
G0 X185.697 Y177.735
G0 X185.255 Y179.092
G0 X184.636 Y180.386
G0 X183.852 Y181.59
G0 X183.07 Y182.533
G0 X182.033 Y183.511
G0 X180.872 Y184.348
G0 X179.606 Y185.03
G0 X178.521 Y185.442
G0 X175.675 Y186.181
;TYPE:WALL-INNER
G1 F2100 E9.98128
G1 F1200 X177.114 Y186.001 E10.02952
G1 X178.309 Y185.694 E10.07055
G1 X178.523 Y185.631 E10.07797
G1 X179.671 Y185.177 E10.11903
G1 X179.872 Y185.081 E10.12644
G1 X180.956 Y184.485 E10.16759
G1 X181.139 Y184.358 E10.175
G1 X182.136 Y183.636 E10.21594
G1 X183.187 Y182.643 E10.26403
G1 X183.978 Y181.69 E10.30522
G1 X184.112 Y181.51 E10.31269
G1 X184.776 Y180.467 E10.35381
G1 X184.877 Y180.269 E10.3612
G1 X185.404 Y179.152 E10.40228
G1 X185.853 Y177.776 E10.45042
G1 X186.084 Y176.564 E10.49146
G1 X186.119 Y176.343 E10.4989
G1 X186.197 Y175.111 E10.53996
G1 X186.196 Y174.887 E10.54741
G1 X186.12 Y173.655 E10.58846
G1 X186.083 Y173.435 E10.59588
G1 X185.853 Y172.224 E10.63688
G1 X185.403 Y170.849 E10.685
G1 X184.877 Y169.73 E10.72613
G1 X184.772 Y169.532 E10.73358
G1 X184.112 Y168.49 E10.7746
G1 X183.977 Y168.311 E10.78206
G1 X183.189 Y167.356 E10.82324
G1 X182.136 Y166.364 E10.87136
G1 X181.137 Y165.638 E10.91243
G1 X180.952 Y165.514 E10.91984
G1 X179.872 Y164.917 E10.96088
G1 X179.67 Y164.823 E10.96829
G1 X178.521 Y164.366 E11.00942
G1 X178.305 Y164.307 E11.01687
G1 X177.114 Y163.999 E11.05779
G1 X175.677 Y163.82 E11.10595
G1 X174.441 Y163.819 E11.14706
G1 X174.217 Y163.829 E11.15452
G1 X172.993 Y163.983 E11.19555
G1 X172.774 Y164.028 E11.20298
G1 X171.577 Y164.334 E11.24408
G1 X171.367 Y164.415 E11.25156
G1 X170.225 Y164.865 E11.29239
G1 X168.959 Y165.568 E11.34055
G1 X167.958 Y166.297 E11.38174
G1 X167.785 Y166.437 E11.38914
G1 X166.882 Y167.283 E11.4303
G1 X166.735 Y167.451 E11.43772
G1 X165.948 Y168.399 E11.4787
G1 X165.174 Y169.624 E11.5269
G1 X164.646 Y170.741 E11.56799
G1 X164.559 Y170.947 E11.57543
G1 X164.177 Y172.123 E11.61655
G1 X164.125 Y172.34 E11.62397
G1 X163.893 Y173.551 E11.66499
G1 X163.876 Y173.774 E11.67242
G1 X163.798 Y175.001 E11.71332
G1 X163.894 Y176.447 E11.76152
G1 X164.125 Y177.662 E11.80265
G1 X164.179 Y177.879 E11.81009
G1 X164.56 Y179.052 E11.85111
G1 X164.647 Y179.258 E11.85855
G1 X165.174 Y180.379 E11.89975
G1 X165.293 Y180.564 E11.90706
G1 X165.948 Y181.601 E11.94786
G1 X166.735 Y182.549 E11.98884
G1 X166.884 Y182.717 E11.99631
G1 X167.785 Y183.564 E12.03744
G1 X167.957 Y183.703 E12.04479
G1 X168.955 Y184.43 E12.08586
G1 X169.15 Y184.542 E12.09334
G1 X170.227 Y185.135 E12.13423
G1 X171.575 Y185.664 E12.18239
G1 X172.775 Y185.973 E12.22361
G1 X172.993 Y186.017 E12.231
G1 X174.22 Y186.173 E12.27214
G1 X174.444 Y186.18 E12.2796
G1 X175.675 Y186.181 E12.32054
G0 F6000 X175.65 Y185.781
;TYPE:WALL-OUTER
G1 F1200 X177.039 Y185.607 E12.3671
G1 X178.203 Y185.308 E12.40707
G1 X178.393 Y185.252 E12.41366
G1 X179.511 Y184.81 E12.45364
G1 X179.69 Y184.725 E12.46024
G1 X180.745 Y184.145 E12.50028
G1 X180.907 Y184.032 E12.50685
G1 X181.88 Y183.327 E12.54681
G1 X182.895 Y182.369 E12.59323
G1 X183.664 Y181.442 E12.63329
G1 X183.783 Y181.283 E12.6399
G1 X184.428 Y180.268 E12.6799
G1 X184.518 Y180.092 E12.68647
G1 X185.032 Y179.004 E12.72649
G1 X185.465 Y177.676 E12.77295
G1 X185.69 Y176.495 E12.81294
G1 X185.721 Y176.299 E12.81954
G1 X185.797 Y175.099 E12.85953
G1 X185.796 Y174.9 E12.86615
G1 X185.722 Y173.701 E12.9061
G1 X185.689 Y173.505 E12.91272
G1 X185.465 Y172.324 E12.9527
G1 X185.031 Y170.997 E12.99913
G1 X184.519 Y169.909 E13.03913
G1 X184.426 Y169.733 E13.04575
G1 X183.783 Y168.718 E13.08571
G1 X183.663 Y168.559 E13.09234
G1 X182.896 Y167.63 E13.1324
G1 X181.88 Y166.673 E13.17883
G1 X180.907 Y165.966 E13.21883
G1 X180.743 Y165.855 E13.22542
G1 X179.691 Y165.274 E13.26539
G1 X179.511 Y165.19 E13.27199
G1 X178.393 Y164.746 E13.312
G1 X178.202 Y164.693 E13.3186
G1 X177.039 Y164.393 E13.35854
G1 X175.652 Y164.22 E13.40503
G1 X174.45 Y164.219 E13.44501
G1 X174.251 Y164.228 E13.45164
G1 X173.058 Y164.378 E13.49163
G1 X172.864 Y164.418 E13.49822
G1 X171.699 Y164.716 E13.53821
G1 X171.513 Y164.788 E13.54485
G1 X170.396 Y165.228 E13.58478
G1 X169.175 Y165.906 E13.63123
G1 X168.202 Y166.614 E13.67125
G1 X168.048 Y166.739 E13.67785
G1 X167.17 Y167.561 E13.71785
G1 X167.04 Y167.71 E13.72443
G1 X166.272 Y168.635 E13.76442
G1 X165.525 Y169.817 E13.81092
G1 X165.011 Y170.904 E13.85091
G1 X164.934 Y171.087 E13.85752
G1 X164.562 Y172.231 E13.89753
G1 X164.516 Y172.424 E13.90413
G1 X164.29 Y173.604 E13.94409
G1 X164.275 Y173.802 E13.95069
G1 X164.199 Y175 E13.99062
